assets/icons/24px/stroke/shopping-basket-24px.svg

<svg width="24" height="24" viewBox="0 0 24 24" fill="none" xmlns="http://www.w3.org/2000/svg">
<path fill-rule="evenodd" clip-rule="evenodd" d="M7.01126 7.99997C7.03491 7.99997 7.05864 7.99997 7.08245 7.99997L16.9887 7.99997C17.9946 7.99992 18.8536 7.99987 19.5318 8.09534C20.254 8.197 20.9455 8.42765 21.4688 9.02716C21.9921 9.62667 22.1272 10.3431 22.1304 11.0724C22.1334 11.7572 22.0172 12.6083 21.8813 13.605L21.4544 16.7352C21.349 17.5085 21.2575 18.18 21.1142 18.7155C20.9598 19.2919 20.7163 19.833 20.227 20.2601C19.7377 20.6872 19.1687 20.8554 18.5767 20.9304C18.0268 21.0001 17.3491 21.0001 16.5687 21H7.43128C6.65089 21.0001 5.97319 21.0001 5.42328 20.9304C4.83126 20.8554 4.26222 20.6872 3.77295 20.2601C3.28367 19.833 3.04011 19.2919 2.88579 18.7155C2.74245 18.18 2.65093 17.5085 2.54553 16.7353L2.1283 13.6755C2.12508 13.6519 2.12187 13.6284 2.11868 13.605C1.98272 12.6084 1.8666 11.7572 1.86956 11.0724C1.87271 10.3431 2.00781 9.62667 2.53112 9.02716C3.05443 8.42765 3.74599 8.197 4.46818 8.09534C5.14633 7.99987 6.00539 7.99992 7.01126 7.99997ZM4.74696 10.0758C4.25297 10.1453 4.11229 10.2571 4.03785 10.3424C3.96341 10.4277 3.8717 10.5821 3.86954 11.081C3.86727 11.6082 3.96175 12.3185 4.10996 13.4053L4.51905 16.4053C4.63499 17.2556 4.7111 17.7998 4.81777 18.1983C4.91713 18.5695 5.01232 18.6872 5.08815 18.7534C5.16399 18.8196 5.29348 18.898 5.67469 18.9463C6.08391 18.9981 6.63342 19 7.49154 19H16.5084C17.3665 19 17.916 18.9981 18.3253 18.9463C18.7065 18.898 18.836 18.8196 18.9118 18.7534C18.9876 18.6872 19.0828 18.5695 19.1822 18.1983C19.2889 17.7998 19.365 17.2556 19.4809 16.4053L19.89 13.4053C20.0382 12.3185 20.1327 11.6082 20.1304 11.081C20.1283 10.5821 20.0365 10.4277 19.9621 10.3424C19.8877 10.2571 19.747 10.1453 19.253 10.0758C18.7309 10.0023 18.0144 9.99997 16.9175 9.99997H7.08245C5.98553 9.99997 5.26904 10.0023 4.74696 10.0758Z" fill="white"/>
<path fill-rule="evenodd" clip-rule="evenodd" d="M10.9342 3C10.956 3 10.978 3 11 3L13 3.00001C13.022 3.00001 13.044 3 13.0658 3C13.9523 2.99995 14.7161 2.99991 15.3278 3.08215C15.9833 3.17028 16.6117 3.36902 17.1213 3.87869C17.631 4.38835 17.8297 5.0167 17.9179 5.67222C18.0001 6.28388 18.0001 7.04769 18 7.93417L18 9H16V8.00001C16 7.02893 15.9979 6.40122 15.9357 5.93871C15.8774 5.50497 15.7832 5.36902 15.7071 5.2929C15.631 5.21678 15.495 5.12263 15.0613 5.06431C14.5988 5.00213 13.9711 5.00001 13 5.00001L11 5.00001C10.0289 5 9.40122 5.00213 8.93871 5.06431C8.50497 5.12262 8.36902 5.21677 8.2929 5.2929C8.21677 5.36902 8.12263 5.50497 8.06431 5.93871C8.00213 6.40121 8 7.02893 8 8V9H6V8C6 7.97799 6 7.95604 6 7.93417C5.99995 7.04769 5.99991 6.28387 6.08215 5.67221C6.17028 5.0167 6.36902 4.38835 6.87868 3.87868C7.38835 3.36902 8.0167 3.17028 8.67221 3.08214C9.28388 2.99991 10.0477 2.99995 10.9342 3Z" fill="white"/>
</svg>

<svg width="24" height="24" fill="none" xmlns="http://www.w3.org/2000/svg"><path fill-rule="evenodd" clip-rule="evenodd" d="M7.011 8h9.978c1.006 0 1.865 0 2.543.095.722.102 1.413.333 1.937.932.523.6.658 1.316.661 2.045.003.685-.113 1.536-.249 2.533l-.427 3.13c-.105.774-.197 1.445-.34 1.98-.154.577-.398 1.118-.887 1.545-.49.427-1.058.595-1.65.67-.55.07-1.228.07-2.008.07H7.43c-.78 0-1.458 0-2.008-.07-.592-.075-1.16-.243-1.65-.67-.49-.427-.733-.968-.887-1.545-.144-.535-.235-1.206-.34-1.98l-.418-3.06-.01-.07c-.135-.997-.251-1.848-.248-2.533.003-.729.138-1.445.661-2.045.523-.6 1.215-.83 1.937-.932C5.146 8 6.005 8 7.011 8zm-2.264 2.076c-.494.07-.635.181-.71.266-.074.086-.165.24-.167.739-.003.527.092 1.238.24 2.324l.409 3c.116.85.192 1.395.299 1.793.1.372.194.49.27.555.076.067.205.145.587.193.409.052.958.054 1.817.054h9.016c.858 0 1.408-.002 1.817-.054.381-.048.511-.126.587-.193.076-.066.17-.183.27-.555.107-.398.183-.942.299-1.793l.409-3c.148-1.086.243-1.797.24-2.324-.002-.499-.093-.653-.168-.739-.074-.085-.215-.197-.709-.266-.522-.074-1.239-.076-2.335-.076H7.082c-1.096 0-1.813.002-2.335.076z" fill="#fff"/><path fill-rule="evenodd" clip-rule="evenodd" d="M10.934 3H13.066c.886 0 1.65 0 2.262.082.655.088 1.284.287 1.793.797.51.51.709 1.138.797 1.793C18 6.284 18 7.048 18 7.934V9h-2V8c0-.971-.002-1.599-.064-2.061-.059-.434-.153-.57-.229-.646-.076-.076-.212-.17-.646-.229C14.6 5.002 13.971 5 13 5h-2c-.971 0-1.599.002-2.061.064-.434.059-.57.153-.646.229-.076.076-.17.212-.229.646C8.002 6.4 8 7.029 8 8v1H6V8v-.066c0-.886 0-1.65.082-2.262.088-.655.287-1.284.797-1.793.51-.51 1.138-.709 1.793-.797C9.284 3 10.048 3 10.934 3z" fill="#fff"/></svg>
